static/assets/images/tokens/usdt-mono.svg

<svg width="256" height="256" viewBox="0 0 256 256" fill="none" xmlns="http://www.w3.org/2000/svg">
<path fill-rule="evenodd" clip-rule="evenodd" d="M256 128C256 198.934 198.934 256 128 256C57.0662 256 0 198.934 0 128C0 57.0662 57.0662 0 128 0C198.934 0 256 57.0662 256 128ZM145.71 110.643V110.635C185.296 112.465 215.04 120.307 215.04 129.706C215.04 139.106 185.267 146.949 145.701 148.769V217.088H110.439V148.794C70.7825 146.965 40.96 139.123 40.96 129.715C40.96 120.307 70.7825 112.456 110.439 110.635V89.3314H61.6495V56.832H194.507V89.3314H145.71V110.635L145.701 110.635L145.71 110.643ZM145.71 142.978C144.721 143.052 139.61 143.357 128.21 143.357C119.143 143.357 112.705 143.085 110.447 142.978C75.4067 141.437 49.2523 135.341 49.2523 128.042C49.2523 120.743 75.4067 114.655 110.447 113.09V136.906C112.738 137.071 119.3 137.458 128.367 137.458C139.247 137.458 144.696 137.005 145.677 136.915V113.107C180.643 114.664 206.74 120.76 206.74 128.042C206.74 135.325 180.651 141.421 145.677 142.97L145.71 142.978Z" fill="black"/>
</svg>

<svg xmlns="http://www.w3.org/2000/svg" fill="none" viewBox="0 0 256 256"><path fill="#000" fill-rule="evenodd" d="M256 128c0 70.934-57.066 128-128 128S0 198.934 0 128 57.066 0 128 0s128 57.066 128 128m-110.29-17.357v-.008c39.586 1.83 69.33 9.672 69.33 19.071s-29.773 17.243-69.339 19.063v68.319h-35.262v-68.294c-39.656-1.829-69.479-9.671-69.479-19.079s29.822-17.259 69.479-19.08V89.331h-48.79V56.832h132.858v32.5H145.71v21.303h-.009zm0 32.335c-.989.074-6.1.379-17.5.379-9.067 0-15.505-.272-17.763-.379-35.04-1.541-61.195-7.637-61.195-14.936s26.155-13.387 61.195-14.952v23.816c2.291.165 8.853.552 17.92.552 10.88 0 16.329-.453 17.31-.543v-23.808c34.966 1.557 61.063 7.653 61.063 14.935s-26.089 13.379-61.063 14.928z" clip-rule="evenodd"/></svg>
